X: 142
T: Newport Assembly
%R: march, reel
B: Chas & Sam Thompson "Twenty Four Country Dances for the Year 1778", London 1778, p.71 #2
F: http://www.vwml.org/browse/browse-collections-dance-tune-books/browse-thompsons1778#
Z: 2014 John Chambers <jc:trillian.mit.edu> (added dance description)
M: 2/4
L: 1/8
K: G
% - - - - - - - - - - - - - - - - - - - - - - - - - - - - -
|:\
g2 (3(gab) | gfed | e2 (3(efg) | edcB |\
c2 (ac) | B2 gB | AGFA | G4 :|
|:\
GABc | dBAG | defg | afed |\
gbag | fagf | (3egf (3ed^c | d2 D2 :|
|:\
gbag | afed | egfa | gdBG |\
ceac | BdgB | AGFA | G2G,2 :|
% - - - - - - - - - - Dance description - - - - - - - - - -
%%begintext align
%%    The 1st and 2d Cu: foot it and change
%% sides .|. the same back again :|. hands across
%% round .|: the same back again :|: Allemand
%% to the right .|:. Allemand to the left :|:.
%%endtext

%%sep 1 1 500
%%sep 1 1 500
